static/logos/steam.svg

<?xml version="1.0" encoding="UTF-8" standalone="no"?>
<svg
   viewBox="0 0 128 128"
   width="128px"
   height="128px"
   version="1.1"
   id="svg5"
   sodipodi:docname="steam.svg"
   inkscape:version="1.1.2 (0a00cf5339, 2022-02-04)"
   xmlns:inkscape="http://www.inkscape.org/namespaces/inkscape"
   xmlns:sodipodi="http://sodipodi.sourceforge.net/DTD/sodipodi-0.dtd"
   xmlns="http://www.w3.org/2000/svg"
   xmlns:svg="http://www.w3.org/2000/svg">
  <defs
     id="defs9" />
  <sodipodi:namedview
     id="namedview7"
     pagecolor="#ffffff"
     bordercolor="#666666"
     borderopacity="1.0"
     inkscape:pageshadow="2"
     inkscape:pageopacity="0.0"
     inkscape:pagecheckerboard="0"
     showgrid="false"
     inkscape:zoom="2.9112912"
     inkscape:cx="71.274217"
     inkscape:cy="64.232668"
     inkscape:window-width="1366"
     inkscape:window-height="699"
     inkscape:window-x="0"
     inkscape:window-y="32"
     inkscape:window-maximized="1"
     inkscape:current-layer="svg5" />
  <g
     id="surface208792227"
     style="fill:#ffffff"
     transform="matrix(1.2191167,0,0,1.2191167,-14.023467,-14.023467)">
    <path
       style="fill:#ffffff;fill-opacity:1;fill-rule:nonzero;stroke:none"
       d="m 64,12 c -28.71875,0 -52,23.28125 -52,52 0,0.472656 0.02344,0.941406 0.03516,1.414062 L 37.3125,74.28125 C 40.238281,70.46875 44.824219,68 50,68 c 0.363281,0 0.71875,0.03125 1.078125,0.05469 L 58.121094,55.378906 C 58.042969,54.597656 58,53.804688 58,53 58,40.296875 68.296875,30 81,30 c 12.703125,0 23,10.296875 23,23 0,12.703125 -10.296875,23 -23,23 -1.257812,0 -2.480469,-0.125 -3.683594,-0.320312 l -11.375,7.109374 C 65.96875,83.191406 66,83.589844 66,84 c 0,8.835938 -7.164062,16 -16,16 -8.835938,0 -16,-7.164062 -16,-16 0,-0.515625 0.03125,-1.023438 0.07813,-1.527344 L 12.652344,72.226562 C 16.597656,97.035156 38.082031,116 64,116 92.71875,116 116,92.71875 116,64 116,35.28125 92.71875,12 64,12 Z m 17,26 c -8.285156,0 -15,6.714844 -15,15 0,8.285156 6.714844,15 15,15 8.285156,0 15,-6.714844 15,-15 0,-8.285156 -6.714844,-15 -15,-15 z m 0,8 c 3.867188,0 7,3.132812 7,7 0,3.867188 -3.132812,7 -7,7 -3.867188,0 -7,-3.132812 -7,-7 0,-3.867188 3.132812,-7 7,-7 z M 50,74 c -2.492188,0 -4.738281,0.945312 -6.492188,2.453125 l 6.871094,2.410156 C 52.53125,79.539062 54,81.535156 54,83.792969 c 0,3.804687 -3.96875,6.308593 -7.402344,4.667969 L 40.140625,85.371094 C 40.8125,90.238281 44.945312,94 50,94 55.523438,94 60,89.523438 60,84 60,78.476562 55.523438,74 50,74 Z m 0,0"
       id="path2" />
  </g>
</svg>

<?xml version="1.0" encoding="UTF-8"?>
<svg xmlns="http://www.w3.org/2000/svg" xmlns:xlink="http://www.w3.org/1999/xlink" viewBox="0 0 128 128" width="128px" height="128px">
<g id="surface208792227">
<path style=" stroke:none;fill-rule:nonzero;fill:rgb(100%,100%,100%);fill-opacity:1;" d="M 64 12 C 35.28125 12 12 35.28125 12 64 C 12 64.472656 12.023438 64.941406 12.035156 65.414062 L 37.3125 74.28125 C 40.238281 70.46875 44.824219 68 50 68 C 50.363281 68 50.71875 68.03125 51.078125 68.054688 L 58.121094 55.378906 C 58.042969 54.597656 58 53.804688 58 53 C 58 40.296875 68.296875 30 81 30 C 93.703125 30 104 40.296875 104 53 C 104 65.703125 93.703125 76 81 76 C 79.742188 76 78.519531 75.875 77.316406 75.679688 L 65.941406 82.789062 C 65.96875 83.191406 66 83.589844 66 84 C 66 92.835938 58.835938 100 50 100 C 41.164062 100 34 92.835938 34 84 C 34 83.484375 34.03125 82.976562 34.078125 82.472656 L 12.652344 72.226562 C 16.597656 97.035156 38.082031 116 64 116 C 92.71875 116 116 92.71875 116 64 C 116 35.28125 92.71875 12 64 12 Z M 81 38 C 72.714844 38 66 44.714844 66 53 C 66 61.285156 72.714844 68 81 68 C 89.285156 68 96 61.285156 96 53 C 96 44.714844 89.285156 38 81 38 Z M 81 46 C 84.867188 46 88 49.132812 88 53 C 88 56.867188 84.867188 60 81 60 C 77.132812 60 74 56.867188 74 53 C 74 49.132812 77.132812 46 81 46 Z M 50 74 C 47.507812 74 45.261719 74.945312 43.507812 76.453125 L 50.378906 78.863281 C 52.53125 79.539062 54 81.535156 54 83.792969 C 54 87.597656 50.03125 90.101562 46.597656 88.460938 L 40.140625 85.371094 C 40.8125 90.238281 44.945312 94 50 94 C 55.523438 94 60 89.523438 60 84 C 60 78.476562 55.523438 74 50 74 Z M 50 74 "/>
</g>
</svg>
